Obsidian/actions/16s/object-ungroup.svg

<svg height="16" viewBox="0 0 16 16" width="16" xmlns="http://www.w3.org/2000/svg"><path d="m3 1c-1.108 0-2 .892-2 2v2h2v-2h2v-2zm8 0v2h2v2h2v-2c0-1.108-.892-2-2-2zm-5 3c-1.1046 0-2 .8954-2 2s.8954 2 2 2 2-.8954 2-2-.8954-2-2-2zm3 0v4h3v-4zm-4 5v3h2v-3zm5.5 0-1.5 3h3zm-9.5 2v2c0 1.108.892 2 2 2h2v-2h-2v-2zm12 0v2h-2v2h2c1.108 0 2-.892 2-2v-2z" fill="#bebebe"/></svg>

<svg xmlns="http://www.w3.org/2000/svg" width="16" height="16" viewBox="0 0 16 16">
 <defs>
  <style id="current-color-scheme" type="text/css">
   .ColorScheme-Text { color:#bebebe; } .ColorScheme-Highlight { color:#4285f4; }
  </style>
 </defs>
 <path style="fill:currentColor" class="ColorScheme-Text" d="M 3 1 C 1.892 1 1 1.892 1 3 L 1 5 L 3 5 L 3 3 L 5 3 L 5 1 L 3 1 z M 11 1 L 11 3 L 13 3 L 13 5 L 15 5 L 15 3 C 15 1.892 14.108 1 13 1 L 11 1 z M 6 4 C 4.8954 4 4 4.8954 4 6 C 4 7.1046 4.8954 8 6 8 C 7.1046 8 8 7.1046 8 6 C 8 4.8954 7.1046 4 6 4 z M 9 4 L 9 8 L 12 8 L 12 4 L 9 4 z M 5 9 L 5 12 L 7 12 L 7 9 L 5 9 z M 10.5 9 L 9 12 L 12 12 L 10.5 9 z M 1 11 L 1 13 C 1 14.108 1.892 15 3 15 L 5 15 L 5 13 L 3 13 L 3 11 L 1 11 z M 13 11 L 13 13 L 11 13 L 11 15 L 13 15 C 14.108 15 15 14.108 15 13 L 15 11 L 13 11 z"/>
</svg>
